fs/mic_prohibited_48_filled.svg

<svg viewBox="0 0 48 48" fill="none" xmlns="http://www.w3.org/2000/svg" height="1em" width="1em">
  <path d="M14 12C14 7.58172 17.5817 4 22 4C26.4183 4 30 7.58172 30 12V22.9963C26.2014 24.5804 23.3154 27.9151 22.3496 31.9925C22.2337 31.9975 22.1172 32 22 32C17.5817 32 14 28.4183 14 24V12ZM22.0024 35.25H22C15.6487 35.25 10.5 30.1013 10.5 23.75C10.5 23.0596 9.94036 22.5 9.25 22.5C8.55964 22.5 8 23.0596 8 23.75C8 30.9752 13.4734 36.9221 20.5 37.6706V42.75C20.5 43.4404 21.0596 44 21.75 44C22.4404 44 23 43.4404 23 42.75V40.0088C22.3861 38.5398 22.0341 36.9341 22.0024 35.25ZM35 46C28.9249 46 24 41.0751 24 35C24 28.9249 28.9249 24 35 24C41.0751 24 46 28.9249 46 35C46 41.0751 41.0751 46 35 46ZM35 44C39.9706 44 44 39.9706 44 35C44 32.875 43.2635 30.922 42.0319 29.3824L29.3824 42.0319C30.922 43.2635 32.875 44 35 44ZM27.9681 40.6177L40.6177 27.9681C39.0781 26.7365 37.125 26 35 26C30.0294 26 26 30.0294 26 35C26 37.125 26.7365 39.0781 27.9681 40.6177Z" fill="#212121"/>
</svg>

<svg viewBox="0 0 48 48" fill="none" xmlns="http://www.w3.org/2000/svg" height="1em" width="1em">
  <path d="M14 12a8 8 0 1 1 16 0v10.996a13.027 13.027 0 0 0-7.65 8.997A8 8 0 0 1 14 24V11.999Zm8.002 23.25H22c-6.351 0-11.5-5.149-11.5-11.5a1.25 1.25 0 1 0-2.5 0c0 7.225 5.473 13.172 12.5 13.92v5.08a1.25 1.25 0 1 0 2.5 0v-2.741a12.948 12.948 0 0 1-.998-4.759ZM35 46c-6.075 0-11-4.925-11-11s4.925-11 11-11 11 4.925 11 11-4.925 11-11 11Zm0-2a9 9 0 0 0 7.032-14.618l-12.65 12.65A8.962 8.962 0 0 0 35 44Zm-7.032-3.382 12.65-12.65a9 9 0 0 0-12.65 12.65Z" fill="#212121"/>
</svg>
